X:1
T:Heilig, heilig, heilig, heilig ist der Herr
T:Franz Schubert
%%score 1 2 3 4
L:1/8
Q:1/4=72
M:3/4
K:F
V:1 treble+8 nm="Sopran 1 Flöte" snm="Bfl."
V:2 treble+8 nm="Sopran 2 Flöte \n" snm="Bfl."
V:3 treble+8 nm="TenorFlöte\n" snm="Bfl."
V:4 bass nm="BassFlöte" snm="Vc."
V:1
"^Adagio"!pp! A4 A2 | G4 A2 | B6 | A6 | G4 G2 | G4 A2 | (F6 | G4) z2 | A4 A2 |!<(! G4 A2!<)! | %10
w: ||||||||||
w: ||||||||||
!mf! B6 |!>(! A6!>)! |!pp! G4 G2 | G4 A2 | F6- | F2 z2 z2 |!f! c4 c2 |!<(! c4 c2!<)! |!>(! d6!>)! | %19
w: |||||||||
w: |||||||||
 B6 | B4 c2 | A4 F2 | G6- | G2 z2 z2 |!pp! A4 A2 |!<(! G4 F2!<)! | B6 | A6 | d4 G2 | G4 A2 | F6- | %31
w: |||||||wal-|||||
w: |||||||hei-|||||
 F2 z4 :| %32
w: |
w: |
V:2
!pp! F4 F2 | E4 F2 | F6 | F6 | F4 F2 | E4 E2 | C6 | E4 z2 | F4 F2 | E4 F2 |!mf! F6 | F6 | %12
!pp! F4 F2 | E4 E2 | C6- | C2 z2 z2 |!f! F4 F2 | G4 G2 | ^F6 | G6 | G4 G2 | F4 F2 | E6- | %23
 E2 z2 z2 |!pp! _E4 E2 | _E4 E2 | D2 F4 | F6 | F4 F2 | E4 E2 | C6- | C2 z4 :| %32
V:3
!pp! c4 c2 | c4 c2 | d6 | c6 | d4 d2 | B4 c2 | A6 | c4 z2 | C4 C2 |!<(! C4 _E2!<)! |!mf! D6 | %11
!>(! C6!>)! |!pp! B4 B2 | B4 c2 | A6- | A2 z2 z2 |!f! A4 A2 |!<(! A4 A2!<)! |!>(! A4 d2!>)! | d6 | %20
 c4 c2 | c4 c2 | c6- | c2 z2 z2 |!pp! c4 c2 |!<(! B4 A2!<)! | (B2!>(! d4)!>)! | c6 | d4 d2 | %29
 B4 c2 | A6- | A2 z4 :| %32
V:4
 F,4 F,2 | C,4 F,2 | B,,6 | F,6 | B,,4 B,,2 | C,4 C,2 | F,6 | C,4 z2 | F,4 F,2 | C,4 C,2 | B,,6 | %11
 F,6 | C,4 C,2 | C,4 C,2 | F,6- | F,2 z2 z2 | F,4 F,2 | E,4 E,2 | D,6 | G,6 | E,4 E,2 | F,4 A,,2 | %22
 C,6- | C,2 z2 z2 | F,4 F,2 | F,4 F,2 | B,,6 | F,6 | B,,4 B,,2 | C,4 C,2 | F,6- | F,2 z4 :| %32

